;FLAVOR:Marlin
;TIME:4014
;Filament used: 1.04156m
;Layer height: 0.2
;MINX:143.022
;MINY:143.029
;MINZ:0.2
;MAXX:156.978
;MAXY:156.971
;MAXZ:112
;POSTPROCESSED
;Generated with Cura_SteamEngine 4.2.1
M140 S70
M105
M190 S70
M104 S215
M105
M109 S215
M82 ;absolute extrusion mode
M201 X500.00 Y500.00 Z100.00 E5000.00 ;Setup machine max acceleration
M203 X500.00 Y500.00 Z10.00 E50.00 ;Setup machine max feedrate
M204 P500.00 R1000.00 T500.00 ;Setup Print/Retract/Travel acceleration
M205 X8.00 Y8.00 Z0.40 E5.00 ;Setup Jerk
M220 S100 ;Reset Feedrate
M221 S100 ;Reset Flowrate
G90
G28 ;Home
M420 S1 Z2 ;Enable ABL using saved Mesh and Fade Height
G92 E0 ;Reset Extruder
G1 Z2.0 F3000 ;Move Z Axis up
G1 X10.1 Y20 Z0.28 F5000.0 ;Move to start position
G1 X10.1 Y200.0 Z0.28 F1500.0 E15 ;Draw the first line
G1 X10.4 Y200.0 Z0.28 F5000.0 ;Move to side a little
G1 X10.4 Y20 Z0.28 F1500.0 E30 ;Draw the second line
G92 E0 ;Reset Extruder
G1 Z2.0 F3000 ;Move Z Axis up
M141 S28
G92 E0
G92 E0
G1 F2700 E-5
;LAYER_COUNT:560
G4 P1
M107
M204 S2000
M205 X20 Y20
G0 F3600 X145.011 Y145.109 Z0.2
M204 S1500
M205 X10 Y10
;TYPE:SKIRT
G1 F2700 E0
G1 F1032.2 X145.734 Y144.467 E0.03055
G1 X146.33 Y144.055 E0.05344
G1 X147.186 Y143.605 E0.084
G1 X147.864 Y143.347 E0.10692
G1 X148.797 Y143.117 E0.13729
G1 X149.512 Y143.03 E0.16004
G1 X150.478 Y143.029 E0.19057
G1 X151.196 Y143.115 E0.21342
G1 X152.129 Y143.344 E0.24377
G1 X152.808 Y143.601 E0.26671
G1 X153.664 Y144.05 E0.29725
G1 X154.259 Y144.461 E0.3201
G1 X154.983 Y145.102 E0.35066
G1 X155.461 Y145.641 E0.37342
G1 X156.007 Y146.43 E0.40374
G1 X156.344 Y147.072 E0.42665
G1 X156.687 Y147.975 E0.45717
G1 X156.861 Y148.679 E0.48008
G1 X156.977 Y149.635 E0.51051
G1 X156.978 Y150.35 E0.5331
G1 X156.864 Y151.309 E0.56362
G1 X156.69 Y152.02 E0.58675
G1 X156.346 Y152.926 E0.61737
G1 X156.009 Y153.567 E0.64025
G1 X155.465 Y154.354 E0.67048
G1 X154.989 Y154.891 E0.69315
G1 X154.266 Y155.533 E0.7237
G1 X153.67 Y155.945 E0.7466
G1 X152.812 Y156.396 E0.77723
G1 X152.134 Y156.654 E0.80015
G1 X151.201 Y156.884 E0.83051
G1 X150.483 Y156.971 E0.85336
G1 X149.519 Y156.971 E0.88382
G1 X148.802 Y156.884 E0.90664
G1 X147.867 Y156.654 E0.93707
G1 X147.19 Y156.398 E0.95994
G1 X146.334 Y155.949 E0.99048
G1 X145.738 Y155.537 E1.01337
G1 X145.016 Y154.897 E1.04386
G1 X144.539 Y154.359 E1.06658
G1 X143.993 Y153.57 E1.09689
G1 X143.655 Y152.928 E1.11982
G1 X143.311 Y152.022 E1.15044
G1 X143.138 Y151.316 E1.17341
G1 X143.023 Y150.363 E1.20374
G1 X143.022 Y149.652 E1.2262
G1 X143.135 Y148.695 E1.25665
G1 X143.232 Y148.215 E1.27212
G1 X143.309 Y147.982 E1.27988
G1 X143.653 Y147.076 E1.3105
G1 X143.99 Y146.436 E1.33335
G1 X144.535 Y145.647 E1.36365
G1 X145.011 Y145.109 E1.38635
M204 S2000
M205 X20 Y20
G0 F3600 X145.277 Y145.408
M204 S1500
M205 X10 Y10
G1 F1032.2 X146 Y144.766 E1.4169
G1 X146.516 Y144.409 E1.43673
G1 X147.372 Y143.959 E1.46729
G1 X147.96 Y143.736 E1.48716
G1 X148.893 Y143.506 E1.51752
G1 X149.512 Y143.43 E1.53722
G1 X150.478 Y143.429 E1.56775
G1 X151.101 Y143.504 E1.58757
G1 X152.034 Y143.733 E1.61793
G1 X152.622 Y143.956 E1.6378
G1 X153.478 Y144.405 E1.66834
G1 X153.994 Y144.76 E1.68813
G1 X154.718 Y145.401 E1.71869
G1 X155.132 Y145.868 E1.7384
G1 X155.678 Y146.657 E1.76872
G1 X155.971 Y147.214 E1.78861
G1 X156.314 Y148.117 E1.81913
G1 X156.464 Y148.727 E1.83898
G1 X156.58 Y149.683 E1.86941
G1 X156.581 Y150.303 E1.889
G1 X156.467 Y151.262 E1.91951
G1 X156.316 Y151.878 E1.93955
G1 X155.972 Y152.784 E1.97017
G1 X155.68 Y153.339 E1.98999
G1 X155.136 Y154.126 E2.02022
G1 X154.723 Y154.592 E2.03989
G1 X154 Y155.234 E2.07044
G1 X153.484 Y155.591 E2.09027
G1 X152.626 Y156.042 E2.1209
G1 X152.038 Y156.265 E2.14077
G1 X151.105 Y156.495 E2.17113
G1 X150.483 Y156.571 E2.19093
G1 X149.519 Y156.571 E2.22139
G1 X148.898 Y156.496 E2.24115
G1 X147.963 Y156.266 E2.27158
G1 X147.376 Y156.043 E2.29142
G1 X146.52 Y155.594 E2.32196
G1 X146.003 Y155.238 E2.34179
G1 X145.281 Y154.598 E2.37228
G1 X144.868 Y154.132 E2.39195
G1 X144.322 Y153.343 E2.42227
G1 X144.029 Y152.786 E2.44216
G1 X143.685 Y151.88 E2.47278
G1 X143.535 Y151.268 E2.49269
G1 X143.42 Y150.315 E2.52302
G1 X143.419 Y149.699 E2.54248
G1 X143.532 Y148.742 E2.57293
G1 X143.683 Y148.124 E2.59303
G1 X144.027 Y147.218 E2.62365
G1 X144.319 Y146.663 E2.64347
G1 X144.864 Y145.874 E2.67377
G1 X145.277 Y145.408 E2.69344
M204 S2000
M205 X20 Y20
G0 F3600 X145.542 Y145.707
M204 S1500
M205 X10 Y10
G1 F1032.2 X146.265 Y145.065 E2.724
G1 X146.702 Y144.763 E2.74078
G1 X147.558 Y144.313 E2.77134
G1 X148.055 Y144.124 E2.78814
G1 X148.988 Y143.894 E2.8185
G1 X149.513 Y143.83 E2.83521
G1 X150.479 Y143.829 E2.86573
G1 X151.005 Y143.892 E2.88247
G1 X151.938 Y144.121 E2.91283
G1 X152.436 Y144.31 E2.92966
G1 X153.292 Y144.759 E2.9602
G1 X153.728 Y145.06 E2.97694
G1 X154.452 Y145.701 E3.0075
G1 X154.803 Y146.096 E3.02419
G1 X155.349 Y146.885 E3.05451
G1 X155.597 Y147.356 E3.07133
G1 X155.94 Y148.259 E3.10185
G1 X156.067 Y148.775 E3.11864
G1 X156.183 Y149.731 E3.14907
G1 X156.184 Y150.256 E3.16566
G1 X156.07 Y151.215 E3.19617
G1 X155.942 Y151.736 E3.21312
G1 X155.598 Y152.642 E3.24374
G1 X155.351 Y153.112 E3.26052
G1 X154.807 Y153.899 E3.29075
G1 X154.458 Y154.293 E3.30738
G1 X153.735 Y154.935 E3.33793
G1 X153.298 Y155.237 E3.35472
G1 X152.44 Y155.688 E3.38534
G1 X151.943 Y155.877 E3.40215
G1 X151.01 Y156.107 E3.43251
G1 X150.483 Y156.171 E3.44928
G1 X149.519 Y156.171 E3.47974
G1 X148.993 Y156.107 E3.49648
G1 X148.058 Y155.877 E3.52691
G1 X147.562 Y155.689 E3.54367
G1 X146.706 Y155.24 E3.57421
G1 X146.269 Y154.938 E3.591
G1 X145.547 Y154.298 E3.62148
G1 X145.197 Y153.904 E3.63813
G1 X144.651 Y153.115 E3.66845
G1 X144.403 Y152.644 E3.68527
G1 X144.059 Y151.738 E3.71589
G1 X143.932 Y151.221 E3.73271
G1 X143.817 Y150.268 E3.76304
G1 X143.816 Y149.746 E3.77954
G1 X143.929 Y148.789 E3.80998
G1 X144.057 Y148.266 E3.827
G1 X144.401 Y147.36 E3.85762
G1 X144.648 Y146.891 E3.87437
G1 X145.193 Y146.102 E3.90467
G1 X145.542 Y145.707 E3.92132
M204 S2000
M205 X20 Y20
G0 F3600 X145.808 Y146.006
M204 S1500
M205 X10 Y10
G1 F1032.2 X146.531 Y145.364 E3.95187
G1 X146.888 Y145.117 E3.96559
G1 X147.744 Y144.667 E3.99615
G1 X148.151 Y144.512 E4.00991
G1 X149.084 Y144.282 E4.04027
G1 X149.513 Y144.23 E4.05392
G1 X150.479 Y144.229 E4.08445
G1 X150.91 Y144.281 E4.09816
G1 X151.843 Y144.51 E4.12852
G1 X152.25 Y144.664 E4.14227
G1 X153.106 Y145.113 E4.17281
G1 X153.463 Y145.359 E4.18651
G1 X154.187 Y146 E4.21706
G1 X154.474 Y146.324 E4.23074
G1 X155.02 Y147.113 E4.26106
G1 X155.223 Y147.498 E4.27481
G1 X155.566 Y148.401 E4.30533
G1 X155.67 Y148.823 E4.31906
G1 X155.786 Y149.779 E4.34949
G1 X155.786 Y150.208 E4.36305
G1 X155.672 Y151.167 E4.39356
G1 X155.568 Y151.594 E4.40745
G1 X155.224 Y152.5 E4.43807
G1 X155.022 Y152.885 E4.45181
G1 X154.478 Y153.672 E4.48204
G1 X154.192 Y153.994 E4.49565
G1 X153.469 Y154.636 E4.5262
G1 X153.112 Y154.883 E4.53991
G1 X152.254 Y155.334 E4.57054
G1 X151.847 Y155.489 E4.5843
G1 X150.914 Y155.719 E4.61466
G1 X150.483 Y155.771 E4.62838
G1 X149.519 Y155.771 E4.65884
G1 X149.089 Y155.719 E4.67253
G1 X148.154 Y155.489 E4.70295
G1 X147.748 Y155.335 E4.71667
G1 X146.892 Y154.886 E4.74721
G1 X146.534 Y154.639 E4.76096
G1 X145.812 Y153.999 E4.79144
G1 X145.526 Y153.676 E4.80507
G1 X144.98 Y152.887 E4.83539
G1 X144.777 Y152.502 E4.84914
G1 X144.433 Y151.596 E4.87976
G1 X144.329 Y151.173 E4.89353
G1 X144.214 Y150.22 E4.92386
G1 X144.213 Y149.793 E4.93735
G1 X144.326 Y148.836 E4.9678
G1 X144.431 Y148.408 E4.98172
G1 X144.775 Y147.502 E5.01235
G1 X144.977 Y147.118 E5.02605
G1 X145.522 Y146.329 E5.05635
G1 X145.808 Y146.006 E5.06999
M204 S2000
M205 X20 Y20
G0 F3600 X146.073 Y146.305
M204 S1500
M205 X10 Y10
G1 F1032.2 X146.796 Y145.663 E5.10054
G1 X147.075 Y145.471 E5.11124
G1 X147.931 Y145.021 E5.1418
G1 X148.247 Y144.901 E5.15248
G1 X149.18 Y144.671 E5.18284
G1 X149.514 Y144.63 E5.19347
G1 X150.48 Y144.629 E5.22399
G1 X150.815 Y144.669 E5.23465
G1 X151.748 Y144.898 E5.26501
G1 X152.064 Y145.018 E5.27569
G1 X152.92 Y145.467 E5.30623
G1 X153.198 Y145.659 E5.31691
G1 X153.922 Y146.3 E5.34746
G1 X154.145 Y146.551 E5.35807
G1 X154.691 Y147.34 E5.38839
G1 X154.849 Y147.64 E5.3991
G1 X155.192 Y148.543 E5.42962
G1 X155.273 Y148.871 E5.4403
G1 X155.389 Y149.827 E5.47073
G1 X155.389 Y150.161 E5.48128
G1 X155.275 Y151.12 E5.51179
G1 X155.194 Y151.452 E5.52259
G1 X154.85 Y152.358 E5.55321
G1 X154.693 Y152.657 E5.56388
G1 X154.149 Y153.444 E5.59411
G1 X153.927 Y153.695 E5.6047
G1 X153.204 Y154.337 E5.63525
G1 X152.925 Y154.529 E5.64595
G1 X152.067 Y154.98 E5.67658
G1 X151.751 Y155.1 E5.68726
G1 X150.818 Y155.33 E5.71762
G1 X150.483 Y155.371 E5.72829
G1 X149.519 Y155.371 E5.75875
G1 X149.185 Y155.33 E5.76938
G1 X148.25 Y155.1 E5.7998
G1 X147.934 Y154.981 E5.81047
G1 X147.078 Y154.532 E5.84102
G1 X146.799 Y154.34 E5.85172
G1 X146.077 Y153.7 E5.8822
G1 X145.855 Y153.449 E5.89279
G1 X145.309 Y152.66 E5.92311
G1 X145.151 Y152.36 E5.93382
G1 X144.807 Y151.454 E5.96444
G1 X144.726 Y151.125 E5.97515
G1 X144.611 Y150.172 E6.00548
G1 X144.611 Y149.84 E6.01597
G1 X144.724 Y148.883 E6.04642
G1 X144.805 Y148.55 E6.05725
G1 X145.149 Y147.644 E6.08787
G1 X145.306 Y147.345 E6.09854
G1 X145.851 Y146.556 E6.12884
G1 X146.073 Y146.305 E6.13943
M204 S2000
M205 X20 Y20
G0 F3600 X146.339 Y146.604
M204 S1500
M205 X10 Y10
G1 F1032.2 X147.062 Y145.962 E6.16998
G1 X147.261 Y145.825 E6.17761
G1 X148.117 Y145.375 E6.20817
G1 X148.343 Y145.289 E6.21581
G1 X149.276 Y145.059 E6.24617
G1 X149.514 Y145.03 E6.25375
G1 X150.48 Y145.029 E6.28427
G1 X150.719 Y145.058 E6.29188
G1 X151.652 Y145.287 E6.32223
G1 X151.879 Y145.372 E6.32989
G1 X152.735 Y145.821 E6.36043
G1 X152.933 Y145.958 E6.36804
G1 X153.657 Y146.599 E6.39859
G1 X153.816 Y146.779 E6.40618
G1 X154.362 Y147.568 E6.4365
G1 X154.475 Y147.782 E6.44415
G1 X154.818 Y148.685 E6.47467
G1 X154.876 Y148.92 E6.48232
G1 X154.992 Y149.876 E6.51274
G1 X154.992 Y150.114 E6.52026
G1 X154.878 Y151.073 E6.55078
G1 X154.82 Y151.31 E6.55849
G1 X154.476 Y152.216 E6.58911
G1 X154.364 Y152.43 E6.59674
G1 X153.82 Y153.217 E6.62697
G1 X153.661 Y153.396 E6.63454
G1 X152.938 Y154.038 E6.66509
G1 X152.739 Y154.175 E6.67272
G1 X151.881 Y154.626 E6.70335
G1 X151.655 Y154.712 E6.71099
G1 X150.722 Y154.942 E6.74135
G1 X150.483 Y154.971 E6.74896
G1 X149.519 Y154.971 E6.77942
G1 X149.28 Y154.942 E6.78703
G1 X148.345 Y154.712 E6.81745
G1 X148.119 Y154.627 E6.82508
G1 X147.263 Y154.178 E6.85562
G1 X147.065 Y154.04 E6.86325
G1 X146.343 Y153.4 E6.89373
G1 X146.184 Y153.221 E6.9013
G1 X145.638 Y152.432 E6.93162
G1 X145.525 Y152.218 E6.93926
G1 X145.181 Y151.312 E6.96988
G1 X145.123 Y151.077 E6.97753
G1 X145.008 Y150.124 E7.00786
G1 X145.008 Y149.887 E7.01535
G1 X145.121 Y148.93 E7.0458
G1 X145.179 Y148.692 E7.05354
G1 X145.523 Y147.786 E7.08416
G1 X145.635 Y147.573 E7.09176
G1 X146.18 Y146.784 E7.12206
G1 X146.339 Y146.604 E7.12965
M204 S2000
M205 X20 Y20
G0 F3600 X146.605 Y146.903
M204 S1500
M205 X10 Y10
G1 F1032.2 X147.328 Y146.261 E7.1602
G1 X147.447 Y146.179 E7.16477
G1 X148.303 Y145.729 E7.19533
G1 X148.438 Y145.677 E7.1999
G1 X149.371 Y145.447 E7.23026
G1 X149.514 Y145.43 E7.23481
G1 X150.48 Y145.429 E7.26533
G1 X150.624 Y145.446 E7.26991
G1 X151.557 Y145.675 E7.30027
G1 X151.693 Y145.727 E7.30487
G1 X152.549 Y146.176 E7.33541
G1 X152.668 Y146.258 E7.33998
G1 X153.392 Y146.899 E7.37053
G1 X153.487 Y147.007 E7.37508
G1 X154.033 Y147.796 E7.40539
G1 X154.101 Y147.924 E7.40997
G1 X154.444 Y148.827 E7.4405
G1 X154.479 Y148.968 E7.44509
G1 X154.595 Y149.924 E7.47551
G1 X154.595 Y150.067 E7.48003
G1 X154.481 Y151.026 E7.51055
G1 X154.446 Y151.168 E7.51517
G1 X154.102 Y152.074 E7.54579
G1 X154.035 Y152.202 E7.55036
G1 X153.491 Y152.989 E7.58058
G1 X153.395 Y153.097 E7.58515
G1 X152.672 Y153.739 E7.6157
G1 X152.553 Y153.821 E7.62027
G1 X151.695 Y154.272 E7.6509
G1 X151.56 Y154.324 E7.65547
G1 X150.627 Y154.554 E7.68583
G1 X150.483 Y154.571 E7.69041
G1 X149.519 Y154.571 E7.72087
G1 X149.376 Y154.554 E7.72542
G1 X148.441 Y154.324 E7.75584
G1 X148.305 Y154.272 E7.76045
G1 X147.449 Y153.823 E7.79099
G1 X147.33 Y153.741 E7.79555
G1 X146.608 Y153.101 E7.82604
G1 X146.513 Y152.993 E7.83058
G1 X145.967 Y152.204 E7.8609
G1 X145.899 Y152.076 E7.86548
G1 X145.555 Y151.17 E7.8961
G1 X145.52 Y151.029 E7.90069
G1 X145.405 Y150.076 E7.93102
G1 X145.405 Y149.934 E7.93551
G1 X145.518 Y148.977 E7.96596
G1 X145.553 Y148.834 E7.97061
G1 X145.897 Y147.928 E8.00123
G1 X145.964 Y147.8 E8.0058
G1 X146.509 Y147.011 E8.0361
G1 X146.605 Y146.903 E8.04066
M204 S2000
M205 X20 Y20
G0 F3600 X146.87 Y147.202
M204 S1500
M205 X10 Y10
G1 F1032.2 X147.593 Y146.56 E8.07121
G1 X147.633 Y146.533 E8.07274
G1 X148.489 Y146.083 E8.10329
G1 X148.534 Y146.066 E8.10481
G1 X149.467 Y145.836 E8.13518
G1 X149.515 Y145.83 E8.13671
G1 X150.481 Y145.829 E8.16723
G1 X150.529 Y145.835 E8.16876
G1 X151.462 Y146.064 E8.19911
G1 X151.507 Y146.081 E8.20063
G1 X152.363 Y146.53 E8.23117
G1 X152.403 Y146.557 E8.2327
G1 X153.127 Y147.198 E8.26325
G1 X153.158 Y147.234 E8.26475
G1 X153.704 Y148.023 E8.29507
G1 X153.727 Y148.066 E8.29661
G1 X154.07 Y148.969 E8.32713
G1 X154.082 Y149.016 E8.32867
G1 X154.198 Y149.972 E8.35909
G1 X154.198 Y150.02 E8.36061
G1 X154.084 Y150.979 E8.39113
G1 X154.072 Y151.026 E8.39266
G1 X153.728 Y151.932 E8.42328
G1 X153.706 Y151.975 E8.42481
G1 X153.162 Y152.762 E8.45504
G1 X153.13 Y152.798 E8.45656
G1 X152.407 Y153.44 E8.48711
G1 X152.367 Y153.467 E8.48863
G1 X151.509 Y153.918 E8.51926
G1 X151.464 Y153.935 E8.52078
G1 X150.531 Y154.165 E8.55114
G1 X150.483 Y154.171 E8.55267
G1 X149.519 Y154.171 E8.58313
G1 X149.471 Y154.165 E8.58466
G1 X148.536 Y153.935 E8.61508
G1 X148.491 Y153.918 E8.6166
G1 X147.635 Y153.469 E8.64715
G1 X147.595 Y153.442 E8.64867
G1 X146.873 Y152.802 E8.67916
G1 X146.842 Y152.766 E8.68066
G1 X146.296 Y151.977 E8.71098
G1 X146.273 Y151.934 E8.71252
G1 X145.929 Y151.028 E8.74314
G1 X145.917 Y150.981 E8.74467
G1 X145.802 Y150.028 E8.775
G1 X145.802 Y149.981 E8.77649
G1 X145.915 Y149.024 E8.80693
G1 X145.927 Y148.976 E8.8085
G1 X146.271 Y148.07 E8.83912
G1 X146.293 Y148.027 E8.84064
G1 X146.838 Y147.238 E8.87094
G1 X146.87 Y147.202 E8.87247
M204 S2000
M205 X20 Y20
G1 F2700 E3.87247
;MESH:range_tige_v2.stl
G0 F3600 X147.321 Y147.631
G0 X148.858 Y146.986
G0 X149.61 Y146.801
G0 X150.241 Y146.801
G0 X151.98 Y147.118
G0 X152.154 Y146.872
M204 S1000
M205 X10 Y10
;TYPE:WALL-OUTER
G1 F2700 E8.87247
G1 F774.1 X152.843 Y147.482 E8.90154
G1 X153.362 Y148.232 E8.93036
G1 X153.687 Y149.088 E8.95929
G1 X153.797 Y149.998 E8.98825
G1 X153.688 Y150.911 E9.01731
G1 X153.363 Y151.766 E9.04621
G1 X152.846 Y152.514 E9.07494
G1 X152.157 Y153.125 E9.10404
G1 X151.346 Y153.552 E9.133
G1 X150.458 Y153.771 E9.1619
G1 X149.544 Y153.771 E9.19078
G1 X148.654 Y153.552 E9.21974
G1 X147.844 Y153.127 E9.24864
G1 X147.157 Y152.518 E9.27765
G1 X146.638 Y151.768 E9.30647
G1 X146.313 Y150.912 E9.3354
G1 X146.203 Y150.002 E9.36436
G1 X146.311 Y149.091 E9.39335
G1 X146.635 Y148.239 E9.42215
G1 X147.156 Y147.484 E9.45113
G1 X147.843 Y146.875 E9.48014
G1 X148.652 Y146.449 E9.50903
G1 X149.54 Y146.23 E9.53793
G1 X150.457 Y146.229 E9.5669
G1 X151.344 Y146.447 E9.59576
G1 X152.154 Y146.872 E9.62467
M204 S2000
M205 X20 Y20
G0 F3600 X151.905 Y147.234
G0 X151.927 Y147.204
M204 S1000
M205 X10 Y10
;TYPE:WALL-INNER
G1 F774.1 X152.54 Y147.747 E9.65054
G1 X153.006 Y148.42 E9.67641
G1 X153.296 Y149.185 E9.70226
G1 X153.394 Y149.998 E9.72813
G1 X153.297 Y150.814 E9.7541
G1 X153.006 Y151.58 E9.77999
G1 X152.544 Y152.248 E9.80565
